X:1
T:Title
%%score ( 1 2 3 ) ( 4 5 )
L:1/8
Q:1/4=105
M:4/4
K:Bb
V:1 treble nm="Grand Piano, Soprano"
V:2 treble 
V:3 treble 
V:4 bass nm="Choir Pad, Posadas, C. Gabriel, 1901"
V:5 bass 
V:1
 FFF[DB]- [DB]D- D/E/F | z8 | z8 | z8 | z8 | z8 | z4 z2 z d- | de z2 z4 | z2 z d- d2 z2 | %9
w: By~Charles~Hutchinson~Gabriel,~1901 * * * * * * * *|||||||||
 z G z F- F4 | z _A2 G- G z z G- | G z z F- F4- | F z z F- F F2 F- | F z z F- F z z2 | %14
w: |||||
 FFF[EG]- [EG]2 [EB][DB]- | [DB] [Ec]2 [DB]- [DB]4- | [DB]4 z4 |] %17
w: |||
V:2
 x8 | EDCB,- B,4- | B, [Fd]2 [Fc]- [Fc] [FA]2 [Fe]- | [Fe] [Fd]2 [Fc]- [Fc] [=Ec]2 [Fc]- | %4
 [Fc] [Gc]2 [^Fd]- [Fd]2 [FA][GB]- | [GB] [G=B]2 [Gc]- [Gc]2 G[FA]- | [FA] F2 [FB]- [FB] [Fc]2 F | %7
 _AG-[Gc][FB]- [FB] [E=A]2 [DB]- | [DB] [DF]2 F- F z dc | BE-[EB]D- D .D3 | BBBB- B- [GB]3 | %11
 c[GB][EG]D- D D2 D- | D F2 c- c3/2 z/ dc | A[FG]Fd- d- [Fd-]2 [Fd] | x8 | x8 | x8 |] %17
V:3
 x8 | x8 | x8 | x8 | x8 | x8 | x8 | x8 | z4 z F2 F- | F z z2 z2 z D- | D z z2 z4 | x8 | x8 | x8 | %14
 x8 | x8 | x8 |] %17
V:4
 F,F,F,[B,,F,]- [B,,F,]D,- D,/E,/F, | z8 | z .B,3 z4 | z8 | z B, z2 z4 | z8 | z8 | z B, z2 z4 | %8
 z8 | z8 | z8 | z8 | z8 | z4 z .B,3 | [D,B,][D,B,][D,B,][E,B,]- [E,B,]2 [E,G,]F,- | %15
 F, [F,A,]2 [B,,B,]- [B,,B,]4- | [B,,B,]4 z4 |] %17
V:5
 x8 | E,D,C,B,,- B,,4- | B,,B,,D,[E,A,]- [E,A,] [D,B,]2 [C,A,]- | %3
 [C,A,] [B,,B,]2 [F,A,]- [F,A,] [C,B,]2 [F,A,]- | [F,A,]E,-[E,G,][D,A,]- [D,A,]2 [D,D][G,D]- | %5
 [G,D] [F,D]2 [=E,C]- [E,C]2 [E,C][F,C]- | [F,C] [E,C]2 [D,B,]- [D,B,] [F,A,]2 B,- | %7
 B,E,-[E,E][F,D]- [F,D] [F,C]2 [B,,B,]- | [B,,B,] [B,,B,]2 [B,,B,]- [B,,B,] [B,,B,]2 [B,,B,]- | %9
 [B,,B,] [B,,B,]2 [B,,B,]- [B,,B,] [B,,B,]2 [B,,B,]- | [B,,B,] [D,B,]2 [E,E]- [E,E] [E,E]2 [E,E]- | %11
 [E,E] [E,B,]2 [B,,B,]- [B,,B,] [B,,B,]2 [B,,B,]- | %12
 [B,,B,] [D,B,]2 [F,A,]- [F,A,] [F,A,]2 [F,A,]- | [F,A,] [F,A,]2 [B,,B,]- [B,,B,]D,F,B, | x8 | x8 | %16
 x8 |] %17

